X:1
T:[ID 2-65b]
T:[ID 2-65b]
T:Bezeichnung standardisiert: Schottisch Triller; Schottisch Triller In dieser Quelle auch als: Tantz In anderer Quelle: Baure - Hs. \"OVLA E-97/E-149 um 1750 (Anm. S. Wascher);  Schottisch = Triller - Tanzbuch aus Arendsee (Anm. S. Wascher);
T:Urheber unbekannt Erstbeleg: um 1750 (Datum in der schriftlichen Quelle) Erstbeleg: 1767 (Datum in der schriftlichen Quelle) Datum in der hier transkribierten schriftlichen Quelle: 1792
C:Urheber unbekannt
C:Erstbeleg: um 1750 (Datum in der schriftlichen Quelle)
C:Erstbeleg: 1767 (Datum in der schriftlichen Quelle)
C:Datum in der hier transkribierten schriftlichen Quelle: 1792
L:1/8
M:2/4
K:G
V:1 treble 
V:1
 gf/e/ dc | Bc d2 | gf/e/ dg | fa e2 | gf/e/ dc | Bc d2 | BGAF | G2 z2 :: GBGB | GB d2 | FAFA | %11
 FA c2 | GBGB | GB d2 | BGAF | G2 G,2 :| %16

